X:486
T:The Flowers of Erin's Green Shore
N:"Slow" "collected by F.O'Neill"
N:Irish title: fionnsgoite n-eirinn ia.t-glaise
B:O'Neill's 486
Z:Transcribed by henrik.norbeck@mailbox.swipnet.se
M:3/4
L:1/8
K:Gm
GA|B2 A2 B2|G2 GF DE|F2 G2 GA|B2 B2 d2|
c3 B 3GFE|F4 fe|d2 B2 dcB|G2 AG FD|
F2 G2 GA|B2 c2 BG|A3/2B/4A/4 G2 G2|G4||
Bc|d2 d2 de|f2 d2 cB|G2 F2 df|g2 f2 dc|
B2 dcB 3GFE|F4 fe|d2 B2 dcB|G2 AG 3GFD|
F2 G2 GA|B2 c2 BG|A3/2B/4A/4 G2 G2|G4||
